!!!OTL: 582. Der Gaertnerbursche.
!!!ARE: Europa, Mitteleuropa, Deutschland, Thueringen
!!!SCT: E0582
!!!TXL: @@DE
!!!YEM: Copyright 1995, estate of Helmut Schaffrath.
**kern	**text
*ICvox	*
*M2/4	*
*k[f#]	*
*G:	*
=1	=1
!LO:TX:a:t=Ruhig.	!
{8d	'Gu-
8b	-ten
8b	Tag,
8a	Herr
=2	=2
8a	Gärt-
8g	-nersmann,
4g}	.
=3	=3
{8d	hat
8g	er
8f#	nicht
8g	La-
=4	=4
4b	-ven-
8a	-del,
8r}	.
=5	=5
{8a	Ros-
8cc	-ma-
8ee	-rin
8dd	und
=6	=6
8dd	Thy-
8cc	-mi-
4cc}	-an
=7	=7
{8a	und
8b	ein
8cc	we-
8f#	-nig
=8	=8
4a	Quen-
8g	-del.'
8r}	.
==	==
!!!AGN: Liebes - Lied
!!!ONB: ESAC (Essen Associative Code) Database: ERK1
!!!AMT: simple duple
!!!AIN: vox
!!!EED: Helmut Schaffrath
!!!EEV: 1.0
!!!GTL: Liebeslieder [Neuere (aus dem 18. bis 19. Jahrh.) - Liebeslust]
!!!URL-scan: https://rosdok.uni-rostock.de/mcrviewer/recordIdentifier/rosdok_ppn745177662/iview2/phys_0409.iview2?x=-128.77276441889308&y=2363.0981140928343&scale=0.5870222003877485&rotation=0&layout=singlePageLayout
!!!ENC: Anna Maria Matuszewska
!!!EEV: 2024/11/12
*-	*-
